X: 1
T: The Lord Mayos delight
B: A COLECTION of the most Celebrated Irish Tunes2 p.8b
M: C|
L: 1/8
K: Gdor
D2 |\
G2F2 G2A2 | d4 G2A2 | d4 G2A2 | F4 E2D2 |\
G2F2 G2A2 | d4 G2A2 |(dc)(AG) G2 :|
|: d2 |\
f>df>g a2(g>f) | (d>c) (c/d/f) TF2ED | f>df>g a2g>f | dcd(f g4) |
f>df>g a2(g>f) | (d>c) (c/d/f) TF2ED | (G>F) c>A G>F f>d | (dc)AG G2 :|
